X:1
T:[ID 1-57]
T:[ID 1-57]
T:Bezeichnung standardisiert: Menuett Men.
T:Urheber unbekannt Datum in der hier transkribierten schriftlichen Quelle: vermutlich vor 1767
C:Urheber unbekannt
C:Datum in der hier transkribierten schriftlichen Quelle: vermutlich vor 1767
L:1/8
M:3/4
K:G
V:1 treble 
V:1
 B4 c2 | d2 gf g2 | d2 c2 B2 | c2 Bc A2 | A4 B2 | c2 f2 a2 | c2 B2 A2 | BcBA G2 | d4 e2 | dgfedc | %10
 B2 AGAF | G6 :: g4 b2 | agfe d2 | c4 e2 | d2 B2 G2 | F4 G2 | AGFE D2 | B4 c2 | d2 gf g2 | %20
 d2 c2 B2 | c2 Bc A2 | A4 B2 | c2 f2 a2 | c2 B2 A2 | BcBA G2 | d4 e2 | dgfedc | B2 AGAF | G6 :| %30

